X:13
T:Ye maidens pretty - parsons
C:Taken down from J. Parsons by S.B.G.  Jan. 1888
%%VWML:SBG-1-1-101-0
F:http://www.vwml.org/record/SBG/1/1/101
Z:Original Sibleius Transcription by Martin and Shan Graebe
M:3/8
L:1/8
K:G
DDD | GG2 | FGA | BG2 | ABc |dB2 | FGE | D3 | DDD |GE2 | EFG | 
AG2 | cBA |dG2 | cBA | G3 | Bcd |ec2 | ABc | dB2 | GAB |cB2 | 
GcB | A3 | DDD |GE2 | EFG | AG2 | cBA |dG2 | cBA | G3 ||



